X: 67
T: 67. Freu dich sehr, o meine Seele
N: Derived from chor067.krn
C: Johann Sebastian Bach
%%abc-version 2.0
%%abcx-abcm2ps-target-version 5.9.1 (29 Sep 2008)
%%abc-creator hum2abc beta
%%abcx-conversion-date 2019/03/11 17:28:18
%%abc-edited-by Craig Stuart Sapp
%%humdrum-veritas 2745838459
%%humdrum-veritas-data 517540170
%%
%%barnumbers 0
L: 1/4
M: C
%%staves [1 2 3 4]
V: 1 clef=treble
V: 2 clef=treble
V: 3 clef=treble-8
V: 4 clef=bass
K: G
[V:1] GABA | 
[V:2] DDDD | 
[V:3] BAGF | 
[V:4] G,F,G,D, | 
[V:1] GFE!fermata!D | 
[V:2] D/^C/DC!fermata!A, | 
[V:3] GAA/G/!fermata!F | 
[V:4] E,F,/G,/ A,/A,,/!fermata!D, | 
[V:1] GABc | 
[V:2] EDD=C | 
[V:3] BAG/F/G | 
[V:4] E,F,G,E, | 
[V:1] BA!fermata!G2 :|]  
[V:2] DD/C/!fermata!B,2 :|]  
[V:3] GF!fermata!D2 :|]  
[V:4] D,/C,/D,!fermata!G,,2 :|]  
[V:1] Bcdc | 
[V:2] GF/E/ D/E//=F//E | 
[V:3] dcF/^G/A | 
[V:4] G,,A,,B,,C,/D,/ | 
[V:1] BA!fermata!B2 | 
[V:2] EE!fermata!^D2 | 
[V:3] =Gc!fermata!F2 | 
[V:4] E,/D,/C,!fermata!B,,2 | 
[V:1] dded | 
[V:2] =DGGF | 
[V:3] G/A/Bc/B/A | 
[V:4] B,,G,,C,D, | 
[V:1] cB!fermata!A2 | 
[V:2] ED/E/!fermata!F2 | 
[V:3] G/A/ B/^c/!fermata!d2 | 
[V:4] E,/F,/G,!fermata!D,2 | 
[V:1] B/c/dcB/A/ | 
[V:2] GGG/F/ G/F/ | 
[V:3] d/=c/BAD | 
[V:4] G,G,,A,,B,, | 
[V:1] GAB2 | 
[V:2] E/D/CB,/^C/^D | 
[V:3] EFGF | 
[V:4] C,/B,,/A,,G,,/A,,/B,, | 
[V:1] !fermata!G2B/c/d | 
[V:2] !fermata!E2E=F | 
[V:3] !fermata!E2G^G | 
[V:4] !fermata!E,,2E,B,, | 
[V:1] cBAB | 
[V:2] E/^F/GF/E/D | 
[V:3] AEF=G | 
[V:4] C,^C,D,/=C,/B,,/G,,/ | 
[V:1] A2!fermata!G2 |]  
[V:2] D3/C/!fermata!B,2 |]  
[V:3] GF!fermata!D2 |]  
[V:4] D,2!fermata!G,,2 |]  



